!! 00000] TT[WS
!!!OTL: Jiaocheng shan
!!!ARE: Asia, China, Shanxi Jiaocheng
!! Ethnic Group: Han
!! WI, 321
!!!SCT: J0389
!!!YEM: Copyright 1995, estate of Helmut Schaffrath.
**kern
*ICvox
*Ivox
*M2/4
*k[b-]
*F:
{4cc
8b-
8a
=1
8dd
8a
4g
=2
8cc
8g
8a
8cc
=3
8cc
8f
8e
8d}
=4
{8cc
8e
8g
8a
=5
8cc
8f
8e
8d
=6
8.c
16d
8g
8f
=7
2c}
==
!!!AGN: Xiaodiao. Xinminge, Xuanchuan
!! Neue Text. Politische Liede
!!!ONB: ESAC (Essen Associative Code) Database: CHINA
!!!AMT: simple duple
!!!AIN: vox
!!!EED: Helmut Schaffrath
!!!EEV: 1.0
*-
